;FLAVOR:Marlin
;TIME:1266
;Filament used: 1.63011m
;Layer height: 0.2
;MINX:93.178
;MINY:99.99
;MINZ:0.3
;MAXX:157.035
;MAXY:155.011
;MAXZ:8.9
;Generated with Cura_SteamEngine 4.2.1
M140 S100
M105
M190 S100
M104 S240
M105
M109 S240
M82 ;absolute extrusion mode
G21 ;metric values
G90 ;absolute positioning
M82 ;set extruder to absolute mode
M107 ;start with the fan off
G28 X0 Y0 ;move X/Y to min endstops
G28 Z0 ;move Z to min endstops
G1 Z15.0 F100 ;move the platform down 15mm
G92 E0 ;zero the extruded length
G1 F200 E3 ;extrude 3mm of feed stock
G92 E0 ;zero the extruded length again
G1 F100
M117 Printing...
G5
M141 S28
G92 E0
G92 E0
G1 F2400 E-6
;LAYER_COUNT:44
;LAYER:0
M107
M204 S3000
G0 F3000 X95.086 Y102.048 Z0.3
M204 S1000
;TYPE:SKIRT
G1 F2400 E0
G1 X95.616 Y101.57 E0.04629
G1 X95.788 Y101.432 E0.06059
G1 X96.366 Y101.02 E0.10663
G1 X96.986 Y100.675 E0.15265
G1 X97.642 Y100.403 E0.1987
G1 X98.293 Y100.212 E0.24271
G1 X98.502 Y100.163 E0.25663
G1 X99.201 Y100.041 E0.30265
G1 X99.864 Y99.997 E0.34574
G1 X100.443 Y99.99 E0.3833
G1 X100.519 Y99.99 E0.38823
G1 X150.03 Y99.992 E3.59938
G1 X150.121 Y99.993 E3.60528
G1 X150.816 Y100.003 E3.65036
G1 X151.524 Y100.053 E3.69639
G1 X152.221 Y100.182 E3.74237
G1 X152.9 Y100.389 E3.78841
G1 X153.551 Y100.671 E3.83442
G1 X154.166 Y101.025 E3.88044
G1 X154.738 Y101.446 E3.9265
G1 X155.259 Y101.928 E3.97254
G1 X155.722 Y102.465 E4.01852
G1 X156.122 Y103.052 E4.06459
G1 X156.453 Y103.679 E4.11058
G1 X156.712 Y104.34 E4.15662
G1 X156.894 Y105.026 E4.20265
G1 X156.999 Y105.728 E4.24869
G1 X157.022 Y106.108 E4.27338
G1 X157.032 Y106.432 E4.29441
G1 X157.035 Y106.626 E4.30699
G1 X157.035 Y112.146 E4.665
G1 X157.034 Y112.236 E4.67084
G1 X157.024 Y112.933 E4.71605
G1 X156.975 Y113.633 E4.76156
G1 X156.867 Y114.488 E4.81745
G1 X156.854 Y114.587 E4.82393
G1 X156.708 Y115.614 E4.89121
G1 X156.403 Y118.29 E5.06589
G1 X156.182 Y120.889 E5.23506
G1 X156.03 Y123.567 E5.40903
G1 X155.956 Y126.18 E5.57857
G1 X155.956 Y128.864 E5.75265
G1 X156.03 Y131.482 E5.92251
G1 X156.18 Y134.149 E6.09576
G1 X156.403 Y136.765 E6.26604
G1 X156.709 Y139.46 E6.44195
G1 X156.965 Y141.324 E6.56398
G1 X157.021 Y141.991 E6.60739
G1 X157.031 Y142.323 E6.62894
G1 X157.034 Y142.512 E6.6412
G1 X157.035 Y147.959 E6.99447
G1 X157.035 Y148.039 E6.99966
G1 X157.026 Y148.757 E7.04623
G1 X156.977 Y149.465 E7.09226
G1 X156.849 Y150.163 E7.13829
G1 X156.643 Y150.842 E7.18431
G1 X156.362 Y151.494 E7.23035
G1 X156.009 Y152.11 E7.2764
G1 X155.59 Y152.682 E7.32239
G1 X155.109 Y153.204 E7.36843
G1 X154.572 Y153.668 E7.41445
G1 X153.986 Y154.069 E7.46051
G1 X153.359 Y154.401 E7.50652
G1 X152.699 Y154.661 E7.55253
G1 X152.014 Y154.845 E7.59853
G1 X151.312 Y154.951 E7.64458
G1 X150.867 Y154.976 E7.67348
G1 X149.837 Y154.999 E7.7403
G1 X149.704 Y155.001 E7.74893
G1 X144.243 Y155.008 E8.10312
G1 X144.235 Y155.008 E8.10364
G1 X100.586 Y155.011 E10.93459
G1 X100.496 Y155.01 E10.94043
G1 X99.793 Y155 E10.98603
G1 X99.086 Y154.95 E11.032
G1 X98.388 Y154.821 E11.07803
G1 X97.851 Y154.664 E11.11432
G1 X97.628 Y154.588 E11.1296
G1 X96.97 Y154.322 E11.17563
G1 X96.346 Y153.983 E11.22169
G1 X95.765 Y153.576 E11.2677
G1 X95.233 Y153.107 E11.31369
G1 X94.542 Y152.299 E11.38265
G1 X94.402 Y152.104 E11.39822
G1 X94.022 Y151.505 E11.44423
G1 X93.711 Y150.867 E11.49026
G1 X93.473 Y150.199 E11.53625
G1 X93.313 Y149.507 E11.58232
G1 X93.224 Y148.656 E11.63781
G1 X93.183 Y147.512 E11.71205
G1 X93.179 Y147.286 E11.72671
G1 X93.178 Y107.37 E14.31556
G1 X93.179 Y107.277 E14.32159
G1 X93.189 Y106.598 E14.36563
G1 X93.239 Y105.89 E14.41167
G1 X93.369 Y105.193 E14.45765
G1 X93.529 Y104.647 E14.49455
G1 X93.6 Y104.44 E14.50875
G1 X93.867 Y103.783 E14.55474
G1 X94.207 Y103.16 E14.60077
G1 X94.615 Y102.579 E14.64682
G1 X95.086 Y102.048 E14.69285
M204 S3000
G0 F3000 X95.537 Y102.333
M204 S1000
G1 F2400 X95.942 Y101.976 E14.72787
G1 X96.114 Y101.838 E14.74217
G1 X96.668 Y101.444 E14.78626
G1 X97.265 Y101.119 E14.83035
G1 X97.895 Y100.865 E14.8744
G1 X98.412 Y100.719 E14.90925
G1 X98.621 Y100.67 E14.92317
G1 X99.29 Y100.554 E14.96721
G1 X99.87 Y100.517 E15.0049
G1 X100.449 Y100.51 E15.04245
G1 X100.519 Y100.51 E15.04699
G1 X150.03 Y100.512 E18.25814
G1 X150.113 Y100.513 E18.26353
G1 X150.808 Y100.523 E18.30861
G1 X151.486 Y100.572 E18.35269
G1 X152.153 Y100.701 E18.39676
G1 X152.801 Y100.908 E18.44088
G1 X153.42 Y101.189 E18.48496
G1 X154.002 Y101.54 E18.52904
G1 X154.538 Y101.958 E18.57313
G1 X155.021 Y102.436 E18.6172
G1 X155.446 Y102.967 E18.66131
G1 X155.805 Y103.544 E18.70539
G1 X156.093 Y104.159 E18.74943
G1 X156.308 Y104.804 E18.79353
G1 X156.445 Y105.47 E18.83763
G1 X156.502 Y106.124 E18.88021
G1 X156.512 Y106.448 E18.90123
G1 X156.515 Y106.626 E18.91278
G1 X156.515 Y112.146 E19.27079
G1 X156.514 Y112.229 E19.27617
G1 X156.504 Y112.926 E19.32138
G1 X156.459 Y113.567 E19.36306
G1 X156.351 Y114.422 E19.41895
G1 X156.339 Y114.513 E19.4249
G1 X156.191 Y115.55 E19.49284
G1 X155.887 Y118.221 E19.6672
G1 X155.663 Y120.85 E19.83832
G1 X155.512 Y123.524 E20.01203
G1 X155.436 Y126.2 E20.18566
G1 X155.436 Y128.844 E20.35714
G1 X155.512 Y131.525 E20.53109
G1 X155.662 Y134.191 E20.70427
G1 X155.887 Y136.831 E20.87612
G1 X156.19 Y139.504 E21.05059
G1 X156.45 Y141.395 E21.17439
G1 X156.501 Y142.007 E21.21422
G1 X156.511 Y142.339 E21.23576
G1 X156.514 Y142.512 E21.24698
G1 X156.515 Y147.959 E21.60026
G1 X156.515 Y148.032 E21.605
G1 X156.506 Y148.75 E21.65157
G1 X156.457 Y149.428 E21.69566
G1 X156.329 Y150.096 E21.73977
G1 X156.124 Y150.744 E21.78385
G1 X155.844 Y151.363 E21.82791
G1 X155.494 Y151.946 E21.87201
G1 X155.077 Y152.483 E21.91611
G1 X154.6 Y152.967 E21.96018
G1 X154.07 Y153.392 E22.00425
G1 X153.493 Y153.752 E22.04835
G1 X152.879 Y154.042 E22.09239
G1 X152.234 Y154.258 E22.13651
G1 X151.569 Y154.396 E22.18056
G1 X150.855 Y154.457 E22.22704
G1 X149.825 Y154.48 E22.29386
G1 X149.703 Y154.481 E22.30177
G1 X144.242 Y154.488 E22.65596
G1 X144.235 Y154.488 E22.65641
G1 X100.586 Y154.491 E25.48736
G1 X100.504 Y154.49 E25.49268
G1 X99.801 Y154.48 E25.53828
G1 X99.123 Y154.431 E25.58237
G1 X98.456 Y154.302 E25.62643
G1 X98.018 Y154.172 E25.65606
G1 X97.795 Y154.096 E25.67134
G1 X97.166 Y153.839 E25.71541
G1 X96.571 Y153.51 E25.75951
G1 X96.019 Y153.114 E25.80357
G1 X95.517 Y152.656 E25.84764
G1 X94.965 Y151.996 E25.90345
G1 X94.825 Y151.801 E25.91902
G1 X94.462 Y151.226 E25.96312
G1 X94.168 Y150.613 E26.00721
G1 X93.949 Y149.97 E26.05127
G1 X93.807 Y149.305 E26.09537
G1 X93.744 Y148.637 E26.13889
G1 X93.703 Y147.493 E26.21313
G1 X93.699 Y147.286 E26.22656
G1 X93.698 Y107.37 E28.8154
G1 X93.699 Y107.285 E28.82092
G1 X93.709 Y106.606 E28.86496
G1 X93.759 Y105.928 E28.90905
G1 X93.888 Y105.261 E28.95311
G1 X94.021 Y104.816 E28.98324
G1 X94.092 Y104.609 E28.99743
G1 X94.35 Y103.98 E29.04152
G1 X94.68 Y103.386 E29.08559
G1 X95.077 Y102.834 E29.12969
G1 X95.537 Y102.333 E29.1738
M204 S3000
G0 F3000 X95.985 Y102.625
M204 S1000
G1 F2400 X96.267 Y102.381 E29.19799
G1 X96.439 Y102.243 E29.21229
G1 X96.969 Y101.869 E29.25436
G1 X97.541 Y101.564 E29.29641
G1 X98.146 Y101.331 E29.33845
G1 X98.53 Y101.225 E29.36429
G1 X98.739 Y101.176 E29.37821
G1 X99.379 Y101.067 E29.42032
G1 X99.876 Y101.037 E29.45261
G1 X100.455 Y101.03 E29.49017
G1 X100.519 Y101.03 E29.49432
G1 X150.03 Y101.032 E32.70547
G1 X150.106 Y101.033 E32.7104
G1 X150.801 Y101.043 E32.75548
G1 X151.447 Y101.092 E32.79749
G1 X152.083 Y101.22 E32.83957
G1 X152.698 Y101.426 E32.88164
G1 X153.283 Y101.706 E32.9237
G1 X153.829 Y102.055 E32.96573
G1 X154.328 Y102.469 E33.00778
G1 X154.772 Y102.942 E33.04986
G1 X155.154 Y103.465 E33.09186
G1 X155.47 Y104.032 E33.13396
G1 X155.713 Y104.633 E33.17601
G1 X155.881 Y105.259 E33.21804
G1 X155.982 Y106.14 E33.27556
G1 X155.992 Y106.464 E33.29658
G1 X155.995 Y106.626 E33.30709
G1 X155.995 Y112.146 E33.6651
G1 X155.994 Y112.221 E33.66997
G1 X155.984 Y112.918 E33.71518
G1 X155.944 Y113.502 E33.75314
G1 X155.836 Y114.357 E33.80903
G1 X155.824 Y114.44 E33.81447
G1 X155.674 Y115.491 E33.88333
G1 X155.371 Y118.152 E34.05703
G1 X155.145 Y120.811 E34.23011
G1 X154.992 Y123.515 E34.40576
G1 X154.916 Y126.186 E34.57907
G1 X154.916 Y128.858 E34.75236
G1 X154.992 Y131.534 E34.92599
G1 X155.144 Y134.229 E35.10106
G1 X155.371 Y136.899 E35.27485
G1 X155.671 Y139.543 E35.44744
G1 X155.935 Y141.465 E35.57326
G1 X155.982 Y142.023 E35.60958
G1 X155.992 Y142.355 E35.63112
G1 X155.994 Y142.512 E35.64131
G1 X155.995 Y147.959 E35.99458
G1 X155.995 Y148.026 E35.99893
G1 X155.986 Y148.744 E36.0455
G1 X155.938 Y149.391 E36.08758
G1 X155.81 Y150.026 E36.12959
G1 X155.606 Y150.642 E36.17168
G1 X155.327 Y151.227 E36.21371
G1 X154.979 Y151.774 E36.25576
G1 X154.565 Y152.273 E36.29781
G1 X154.094 Y152.718 E36.33984
G1 X153.571 Y153.102 E36.38192
G1 X153.005 Y153.419 E36.424
G1 X152.405 Y153.663 E36.466
G1 X151.779 Y153.832 E36.50806
G1 X150.843 Y153.937 E36.56915
G1 X149.813 Y153.96 E36.63597
G1 X149.703 Y153.961 E36.6431
G1 X144.242 Y153.968 E36.99729
G1 X144.235 Y153.968 E36.99774
G1 X100.586 Y153.971 E39.82869
G1 X100.511 Y153.97 E39.83356
G1 X99.808 Y153.96 E39.87916
G1 X99.162 Y153.911 E39.92118
G1 X98.526 Y153.783 E39.96325
G1 X98.186 Y153.68 E39.98629
G1 X97.963 Y153.604 E40.00157
G1 X97.364 Y153.357 E40.0436
G1 X96.799 Y153.039 E40.08565
G1 X96.277 Y152.653 E40.12775
G1 X95.808 Y152.206 E40.16977
G1 X95.387 Y151.693 E40.21282
G1 X95.247 Y151.498 E40.22838
G1 X94.902 Y150.949 E40.27044
G1 X94.627 Y150.361 E40.31254
G1 X94.427 Y149.745 E40.35454
G1 X94.304 Y149.108 E40.39662
G1 X94.263 Y148.618 E40.42851
G1 X94.222 Y147.474 E40.50276
G1 X94.219 Y147.286 E40.51495
G1 X94.218 Y107.37 E43.10379
G1 X94.219 Y107.293 E43.10879
G1 X94.229 Y106.614 E43.15283
G1 X94.278 Y105.967 E43.19491
G1 X94.407 Y105.332 E43.23694
G1 X94.513 Y104.984 E43.26053
G1 X94.584 Y104.777 E43.27473
G1 X94.831 Y104.178 E43.31675
G1 X95.151 Y103.614 E43.35881
G1 X95.537 Y103.094 E43.40081
G1 X95.985 Y102.625 E43.44287
M204 S3000
G1 F2400 E37.44287
;MESH:Esp32Case_top_V0.9.stl
G0 F3000 X100.272 Y105.625
G0 X100.272 Y107.084
G0 X149.435 Y107.592
M204 S1000
;TYPE:WALL-INNER
G1 F2400 E43.44287
G1 X149.435 Y111.293 E43.68291
G1 X149.435 Y111.553 E43.69977
G1 X149.175 Y111.553 E43.71069
G1 X145.211 Y111.552 E43.96778
G1 X142.935 Y111.553 E44.1154
G1 X142.935 Y143.224 E46.16949
G1 X142.935 Y143.484 E46.18635
G1 X143.195 Y143.484 E46.19727
G1 X149.175 Y143.483 E46.58511
G1 X149.435 Y143.483 E46.60197
G1 X149.435 Y143.743 E46.61289
G1 X149.435 Y147.402 E46.8502
G1 X144.233 Y147.408 E47.18759
G1 X101.039 Y147.411 E49.98903
G1 X100.779 Y147.411 E50.00589
G1 X100.779 Y147.151 E50.01681
G1 X100.778 Y107.85 E52.56576
G1 X100.778 Y107.59 E52.58263
G1 X101.038 Y107.59 E52.59354
G1 X149.435 Y107.592 E55.73243
M204 S3000
G0 F3000 X124.884 Y123.493
M204 S1000
G1 F2400 X113.45 Y123.493 E56.47401
G1 X113.45 Y134.507 E57.18835
G1 X124.884 Y134.507 E57.92993
G1 X124.884 Y123.493 E58.64427
M204 S3000
G0 F3000 X149.885 Y107.142
G0 X149.955 Y107.072
M204 S1000
G1 F2400 X149.955 Y111.813 E58.95175
G1 X149.955 Y112.073 E58.96862
G1 X149.695 Y112.073 E58.97953
G1 X145.211 Y112.072 E59.27035
G1 X143.455 Y112.073 E59.38424
G1 X143.455 Y142.704 E61.37088
G1 X143.455 Y142.964 E61.38774
G1 X143.715 Y142.964 E61.39866
G1 X149.695 Y142.963 E61.7865
G1 X149.955 Y142.963 E61.80337
G1 X149.955 Y143.223 E61.81428
G1 X149.955 Y147.921 E62.11898
G1 X144.234 Y147.928 E62.49003
G1 X100.519 Y147.931 E65.32526
G1 X100.259 Y147.931 E65.34212
G1 X100.259 Y147.671 E65.35304
G1 X100.258 Y107.33 E67.96944
G1 X100.258 Y107.07 E67.98631
G1 X100.518 Y107.07 E67.99722
G1 X149.955 Y107.072 E71.20357
M204 S3000
G0 F3000 X149.885 Y107.142
G0 X124.434 Y123.943
G0 X124.364 Y124.013
M204 S1000
G1 F2400 X113.97 Y124.013 E71.87769
G1 X113.97 Y133.987 E72.52458
G1 X124.364 Y133.987 E73.19871
G1 X124.364 Y124.013 E73.84559
M204 S3000
G0 F3000 X124.434 Y123.943
G0 X149.885 Y107.142
G0 X150.475 Y106.552
M204 S1000
;TYPE:WALL-OUTER
G1 F2400 X150.475 Y112.333 E74.22053
G1 X150.475 Y112.593 E74.2374
G1 X150.215 Y112.593 E74.24831
G1 X145.211 Y112.592 E74.57285
G1 X143.975 Y112.593 E74.65302
G1 X143.975 Y142.184 E76.57221
G1 X143.975 Y142.444 E76.58907
G1 X144.235 Y142.444 E76.59998
G1 X150.215 Y142.443 E76.98783
G1 X150.475 Y142.443 E77.00469
G1 X150.475 Y142.703 E77.01561
G1 X150.475 Y148.44 E77.38769
G1 X144.235 Y148.448 E77.7924
G1 X100.057 Y148.451 E80.65767
G1 X99.921 Y148.451 E80.66649
G1 X99.816 Y148.414 E80.67371
G1 X99.749 Y148.322 E80.68109
G1 X99.739 Y148.282 E80.68376
G1 X99.739 Y148.146 E80.69258
G1 X99.738 Y106.863 E83.37008
G1 X99.738 Y106.727 E83.37891
G1 X99.775 Y106.623 E83.38606
G1 X99.846 Y106.569 E83.39185
G1 X99.913 Y106.55 E83.39637
G1 X100.049 Y106.55 E83.40519
G1 X150.475 Y106.552 E86.67568
M204 S3000
G0 F3000 X150.475 Y106.752
G0 X149.885 Y107.142
G0 X123.844 Y123.913
G0 X123.844 Y124.533
M204 S1000
G1 F2400 X114.49 Y124.533 E87.28235
G1 X114.49 Y133.467 E87.86179
G1 X123.844 Y133.467 E88.46846
G1 X123.844 Y124.533 E89.0479
M204 S3000
G0 F3000 X123.644 Y124.533
G0 X123.644 Y123.913
G0 X125.394 Y122.983
M204 S1000
;TYPE:SKIN
G1 F2400 X112.94 Y122.983 E89.85563
G1 X112.94 Y135.017 E90.63612
G1 X125.394 Y135.017 E91.44386
G1 X125.394 Y122.983 E92.22435
M204 S3000
G0 F3000 X142.425 Y111.043
M204 S1000
G1 F2400 X142.425 Y143.994 E94.36146
G1 X148.925 Y143.993 E94.78303
G1 X148.925 Y146.892 E94.97105
G1 X144.233 Y146.898 E95.27536
G1 X101.289 Y146.901 E98.06059
G1 X101.288 Y108.1 E100.57712
G1 X148.925 Y108.102 E103.66673
G1 X148.925 Y111.043 E103.85747
G1 X145.211 Y111.042 E104.09835
G1 X142.425 Y111.043 E104.27904
M204 S3000
G0 F3000 X148.684 Y108.972
M204 S1000
G1 F2400 X148.053 Y108.342 E104.33687
M204 S3000
G0 F3000 X147.317 Y108.342
M204 S1000
G1 F2400 X148.684 Y109.708 E104.46221
M204 S3000
G0 F3000 X148.684 Y110.443
M204 S1000
G1 F2400 X146.582 Y108.342 E104.65497
M204 S3000
G0 F3000 X145.847 Y108.342
M204 S1000
G1 F2400 X148.307 Y110.802 E104.8806
M204 S3000
G0 F3000 X147.571 Y110.802
M204 S1000
G1 F2400 X145.111 Y108.342 E105.10624
M204 S3000
G0 F3000 X144.376 Y108.342
M204 S1000
G1 F2400 X146.836 Y110.802 E105.33188
M204 S3000
G0 F3000 X146.1 Y110.802
M204 S1000
G1 F2400 X143.64 Y108.342 E105.55751
M204 S3000
G0 F3000 X142.905 Y108.342
M204 S1000
G1 F2400 X145.365 Y110.802 E105.78315
M204 S3000
G0 F3000 X144.63 Y110.802
M204 S1000
G1 F2400 X142.17 Y108.342 E106.00878
M204 S3000
G0 F3000 X141.434 Y108.342
M204 S1000
G1 F2400 X143.894 Y110.802 E106.23442
M204 S3000
G0 F3000 X143.159 Y110.802
M204 S1000
G1 F2400 X140.699 Y108.342 E106.46006
M204 S3000
G0 F3000 X139.964 Y108.342
M204 S1000
G1 F2400 X142.424 Y110.802 E106.68569
M204 S3000
G0 F3000 X142.185 Y111.298
M204 S1000
G1 F2400 X139.228 Y108.342 E106.95687
M204 S3000
G0 F3000 X138.493 Y108.342
M204 S1000
G1 F2400 X142.185 Y112.033 E107.29546
M204 S3000
G0 F3000 X142.185 Y112.769
M204 S1000
G1 F2400 X137.757 Y108.342 E107.70156
M204 S3000
G0 F3000 X137.022 Y108.342
M204 S1000
G1 F2400 X142.185 Y113.504 E108.17507
M204 S3000
G0 F3000 X142.185 Y114.24
M204 S1000
G1 F2400 X136.286 Y108.341 E108.71614
M204 S3000
G0 F3000 X135.55 Y108.341
M204 S1000
G1 F2400 X142.185 Y114.975 E109.32467
M204 S3000
G0 F3000 X142.185 Y115.71
M204 S1000
G1 F2400 X134.815 Y108.341 E110.00062
M204 S3000
G0 F3000 X134.08 Y108.341
M204 S1000
G1 F2400 X142.185 Y116.446 E110.74402
M204 S3000
G0 F3000 X142.185 Y117.181
M204 S1000
G1 F2400 X133.344 Y108.341 E111.55489
M204 S3000
G0 F3000 X132.609 Y108.341
M204 S1000
G1 F2400 X142.185 Y117.917 E112.43322
M204 S3000
