;FLAVOR:Marlin
;TIME:1030
;Filament used: 1.37782m
;Layer height: 0.2
;MINX:92.412
;MINY:99.352
;MINZ:0.3
;MAXX:157.807
;MAXY:155.857
;MAXZ:4.9
;Generated with Cura_SteamEngine 4.2.1
M140 S100
M105
M190 S100
M104 S240
M105
M109 S240
M82 ;absolute extrusion mode
G21 ;metric values
G90 ;absolute positioning
M82 ;set extruder to absolute mode
M107 ;start with the fan off
G28 X0 Y0 ;move X/Y to min endstops
G28 Z0 ;move Z to min endstops
G1 Z15.0 F100 ;move the platform down 15mm
G92 E0 ;zero the extruded length
G1 F200 E3 ;extrude 3mm of feed stock
G92 E0 ;zero the extruded length again
G1 F100
M117 Printing...
G5
M141 S28
G92 E0
G92 E0
G1 F2400 E-6
;LAYER_COUNT:24
;LAYER:0
M107
M204 S3000
G0 F3000 X94.325 Y101.41 Z0.3
M204 S1000
;TYPE:SKIRT
G1 F2400 E0
G1 X94.925 Y100.876 E0.05209
G1 X95.094 Y100.744 E0.066
G1 X95.677 Y100.339 E0.11204
G1 X96.302 Y100.003 E0.15806
G1 X97.139 Y99.681 E0.21623
G1 X97.287 Y99.636 E0.22626
G1 X97.977 Y99.469 E0.27231
G1 X99.026 Y99.365 E0.34067
G1 X99.767 Y99.354 E0.38874
G1 X99.86 Y99.353 E0.39477
G1 X111.197 Y99.352 E1.13006
G1 X111.286 Y99.353 E1.13583
G1 X112.568 Y99.371 E1.21899
G1 X112.657 Y99.372 E1.22476
G1 X114.261 Y99.417 E1.32883
G1 X116.936 Y99.417 E1.50232
G1 X118.3 Y99.387 E1.59081
G1 X119.256 Y99.359 E1.65284
G1 X119.44 Y99.356 E1.66478
G1 X150.8 Y99.356 E3.6987
G1 X150.89 Y99.357 E3.70454
G1 X151.588 Y99.367 E3.74981
G1 X152.296 Y99.417 E3.79584
G1 X152.994 Y99.546 E3.84188
G1 X153.673 Y99.753 E3.88792
G1 X154.324 Y100.035 E3.93393
G1 X154.939 Y100.389 E3.97996
G1 X155.511 Y100.809 E4.02598
G1 X156.032 Y101.291 E4.07202
G1 X156.495 Y101.829 E4.11805
G1 X156.895 Y102.415 E4.16407
G1 X157.226 Y103.043 E4.21011
G1 X157.485 Y103.704 E4.25615
G1 X157.667 Y104.389 E4.30212
G1 X157.772 Y105.091 E4.34816
G1 X157.796 Y105.489 E4.37402
G1 X157.805 Y105.809 E4.39478
G1 X157.807 Y105.986 E4.40626
G1 X157.807 Y115.978 E5.05432
G1 X157.806 Y116.068 E5.06015
G1 X157.796 Y116.765 E5.10536
G1 X157.767 Y117.29 E5.13947
G1 X157.677 Y118.204 E5.19903
G1 X157.445 Y120.949 E5.3777
G1 X157.298 Y123.565 E5.54763
G1 X157.223 Y126.246 E5.72158
G1 X157.225 Y128.896 E5.89346
G1 X157.3 Y131.506 E6.0628
G1 X157.453 Y134.185 E6.23684
G1 X157.682 Y136.866 E6.41135
G1 X157.764 Y137.67 E6.46377
G1 X157.794 Y138.122 E6.49315
G1 X157.804 Y138.456 E6.51482
G1 X157.807 Y138.645 E6.52708
G1 X157.807 Y148.608 E7.17325
G1 X157.806 Y148.695 E7.1789
G1 X157.796 Y149.422 E7.22605
G1 X157.747 Y150.13 E7.27208
G1 X157.618 Y150.827 E7.31806
G1 X157.411 Y151.506 E7.36409
G1 X157.129 Y152.158 E7.41017
G1 X156.776 Y152.773 E7.45616
G1 X156.356 Y153.345 E7.50218
G1 X155.874 Y153.866 E7.54822
G1 X155.337 Y154.33 E7.59424
G1 X154.751 Y154.73 E7.64026
G1 X154.123 Y155.061 E7.6863
G1 X153.463 Y155.32 E7.73229
G1 X152.777 Y155.504 E7.77835
G1 X152.075 Y155.608 E7.82438
G1 X151.674 Y155.633 E7.85044
G1 X151.354 Y155.642 E7.8712
G1 X151.177 Y155.644 E7.88268
G1 X138.554 Y155.644 E8.70137
G1 X135.905 Y155.681 E8.8732
G1 X132.513 Y155.83 E9.0934
G1 X132.352 Y155.835 E9.10385
G1 X131.205 Y155.856 E9.17826
G1 X131.09 Y155.857 E9.18571
G1 X120.482 Y155.857 E9.87372
G1 X120.393 Y155.856 E9.87949
G1 X119.687 Y155.846 E9.92529
G1 X119.511 Y155.841 E9.93671
G1 X118.822 Y155.812 E9.98143
G1 X118.729 Y155.808 E9.98747
G1 X117.389 Y155.732 E10.07452
G1 X114.771 Y155.658 E10.24438
G1 X113.386 Y155.648 E10.33421
G1 X99.828 Y155.648 E11.21355
G1 X99.738 Y155.647 E11.21938
G1 X99.035 Y155.637 E11.26498
G1 X98.328 Y155.587 E11.31095
G1 X97.63 Y155.458 E11.35699
G1 X97.049 Y155.286 E11.39629
G1 X96.837 Y155.212 E11.41085
G1 X96.181 Y154.941 E11.45688
G1 X95.56 Y154.598 E11.5029
G1 X94.981 Y154.187 E11.54895
G1 X94.453 Y153.713 E11.59497
G1 X94.119 Y153.351 E11.62691
G1 X93.986 Y153.195 E11.64021
G1 X93.557 Y152.63 E11.68622
G1 X93.194 Y152.02 E11.73226
G1 X92.902 Y151.374 E11.77824
G1 X92.775 Y151.012 E11.80312
G1 X92.723 Y150.848 E11.81428
G1 X92.547 Y150.161 E11.86027
G1 X92.449 Y149.458 E11.90631
G1 X92.429 Y149.05 E11.9328
G1 X92.414 Y148.156 E11.99079
G1 X92.413 Y148.05 E11.99767
G1 X92.412 Y106.752 E14.67614
G1 X92.413 Y106.659 E14.68217
G1 X92.423 Y105.985 E14.72589
G1 X92.473 Y105.277 E14.77193
G1 X92.603 Y104.579 E14.81797
G1 X92.761 Y104.041 E14.85434
G1 X92.842 Y103.804 E14.87059
G1 X93.109 Y103.146 E14.91664
G1 X93.448 Y102.523 E14.96264
G1 X93.855 Y101.941 E15.0087
G1 X94.325 Y101.41 E15.05469
M204 S3000
G0 F3000 X94.776 Y101.695
M204 S1000
G1 F2400 X95.245 Y101.286 E15.09505
G1 X95.414 Y101.154 E15.10896
G1 X95.973 Y100.768 E15.15302
G1 X96.574 Y100.45 E15.19712
G1 X97.291 Y100.179 E15.24683
G1 X97.439 Y100.134 E15.25687
G1 X98.099 Y99.975 E15.3009
G1 X99.034 Y99.885 E15.36182
G1 X99.775 Y99.874 E15.40988
G1 X99.86 Y99.873 E15.4154
G1 X111.197 Y99.872 E16.15068
G1 X111.279 Y99.873 E16.156
G1 X112.561 Y99.891 E16.23916
G1 X112.642 Y99.892 E16.24441
G1 X114.246 Y99.937 E16.34848
G1 X116.901 Y99.937 E16.52068
G1 X118.325 Y99.906 E16.61306
G1 X119.271 Y99.878 E16.67444
G1 X119.44 Y99.876 E16.6854
G1 X150.8 Y99.876 E18.71933
G1 X150.883 Y99.877 E18.72471
G1 X151.581 Y99.887 E18.76998
G1 X152.259 Y99.936 E18.81407
G1 X152.926 Y100.065 E18.85813
G1 X153.574 Y100.272 E18.90225
G1 X154.193 Y100.553 E18.94634
G1 X154.774 Y100.904 E18.99037
G1 X155.311 Y101.322 E19.0345
G1 X155.794 Y101.799 E19.07853
G1 X156.218 Y102.33 E19.1226
G1 X156.577 Y102.908 E19.16673
G1 X156.866 Y103.523 E19.2108
G1 X157.081 Y104.168 E19.2549
G1 X157.218 Y104.834 E19.299
G1 X157.276 Y105.504 E19.34262
G1 X157.285 Y105.824 E19.36338
G1 X157.287 Y105.986 E19.37389
G1 X157.287 Y115.978 E20.02194
G1 X157.286 Y116.061 E20.02732
G1 X157.276 Y116.758 E20.07253
G1 X157.249 Y117.239 E20.10378
G1 X157.159 Y118.16 E20.1638
G1 X156.927 Y120.91 E20.34279
G1 X156.778 Y123.557 E20.51474
G1 X156.703 Y126.232 E20.6883
G1 X156.705 Y128.874 E20.85965
G1 X156.782 Y131.552 E21.03341
G1 X156.934 Y134.225 E21.20705
G1 X157.163 Y136.9 E21.38118
G1 X157.247 Y137.723 E21.43484
G1 X157.274 Y138.138 E21.46181
G1 X157.284 Y138.472 E21.48348
G1 X157.287 Y138.645 E21.4947
G1 X157.287 Y148.608 E22.14088
G1 X157.286 Y148.687 E22.146
G1 X157.276 Y149.414 E22.19316
G1 X157.227 Y150.092 E22.23724
G1 X157.099 Y150.76 E22.28136
G1 X156.893 Y151.408 E22.32546
G1 X156.612 Y152.027 E22.36955
G1 X156.261 Y152.609 E22.41363
G1 X155.843 Y153.145 E22.45771
G1 X155.366 Y153.629 E22.50179
G1 X154.835 Y154.054 E22.5459
G1 X154.258 Y154.413 E22.58997
G1 X153.643 Y154.702 E22.63404
G1 X152.998 Y154.917 E22.67814
G1 X152.333 Y155.054 E22.72218
G1 X151.659 Y155.113 E22.76606
G1 X151.339 Y155.122 E22.78682
G1 X151.177 Y155.124 E22.79733
G1 X138.547 Y155.124 E23.61647
G1 X135.874 Y155.162 E23.78986
G1 X132.49 Y155.31 E24.00954
G1 X132.343 Y155.315 E24.01908
G1 X131.196 Y155.336 E24.09349
G1 X131.09 Y155.337 E24.10036
G1 X120.482 Y155.337 E24.78837
G1 X120.4 Y155.336 E24.79368
G1 X119.694 Y155.326 E24.83948
G1 X119.533 Y155.322 E24.84992
G1 X118.844 Y155.293 E24.89465
G1 X118.759 Y155.289 E24.90017
G1 X117.434 Y155.214 E24.98624
G1 X114.743 Y155.138 E25.16084
G1 X113.389 Y155.128 E25.24866
G1 X99.828 Y155.128 E26.12819
G1 X99.746 Y155.127 E26.13351
G1 X99.043 Y155.117 E26.17911
G1 X98.365 Y155.068 E26.2232
G1 X97.698 Y154.939 E26.26726
G1 X97.22 Y154.795 E26.29964
G1 X97.008 Y154.721 E26.3142
G1 X96.381 Y154.46 E26.35825
G1 X95.788 Y154.127 E26.40236
G1 X95.239 Y153.726 E26.44645
G1 X94.515 Y153.014 E26.51231
G1 X94.382 Y152.858 E26.52561
G1 X93.972 Y152.316 E26.56968
G1 X93.628 Y151.729 E26.61381
G1 X93.27 Y150.855 E26.67507
G1 X93.218 Y150.691 E26.68622
G1 X93.051 Y150.032 E26.73032
G1 X92.949 Y149.041 E26.79493
G1 X92.934 Y148.147 E26.85292
G1 X92.933 Y148.05 E26.85921
G1 X92.932 Y106.752 E29.53769
G1 X92.933 Y106.666 E29.54327
G1 X92.943 Y105.992 E29.58698
G1 X92.993 Y105.314 E29.63108
G1 X93.122 Y104.647 E29.67514
G1 X93.253 Y104.209 E29.70479
G1 X93.334 Y103.972 E29.72103
G1 X93.591 Y103.343 E29.7651
G1 X93.92 Y102.748 E29.8092
G1 X94.317 Y102.196 E29.8533
G1 X94.776 Y101.695 E29.89737
M204 S3000
G0 F3000 X95.225 Y101.985
M204 S1000
G1 F2400 X95.565 Y101.696 E29.92631
G1 X95.734 Y101.564 E29.94022
G1 X96.269 Y101.197 E29.98229
G1 X96.844 Y100.898 E30.02433
G1 X97.442 Y100.676 E30.0657
G1 X97.59 Y100.631 E30.07573
G1 X98.221 Y100.481 E30.1178
G1 X99.042 Y100.405 E30.17127
G1 X99.783 Y100.394 E30.21934
G1 X99.861 Y100.393 E30.2244
G1 X111.198 Y100.392 E30.95968
G1 X111.272 Y100.393 E30.96448
G1 X112.554 Y100.411 E31.04764
G1 X112.628 Y100.412 E31.05244
G1 X114.232 Y100.457 E31.15651
G1 X116.912 Y100.457 E31.33033
G1 X118.353 Y100.425 E31.42381
G1 X119.286 Y100.398 E31.48435
G1 X119.44 Y100.396 E31.49434
G1 X150.8 Y100.396 E33.52826
G1 X150.875 Y100.397 E33.53312
G1 X151.573 Y100.407 E33.5784
G1 X152.22 Y100.456 E33.62048
G1 X152.855 Y100.584 E33.66249
G1 X153.47 Y100.79 E33.70456
G1 X154.055 Y101.069 E33.7466
G1 X154.601 Y101.419 E33.78866
G1 X155.1 Y101.833 E33.83071
G1 X155.545 Y102.305 E33.87278
G1 X155.927 Y102.829 E33.91484
G1 X156.243 Y103.395 E33.95688
G1 X156.486 Y103.996 E33.99893
G1 X156.653 Y104.623 E34.04101
G1 X156.756 Y105.518 E34.09944
G1 X156.765 Y105.838 E34.1202
G1 X156.767 Y105.986 E34.1298
G1 X156.767 Y115.978 E34.77786
G1 X156.766 Y116.053 E34.78272
G1 X156.756 Y116.75 E34.82793
G1 X156.732 Y117.189 E34.85645
G1 X156.634 Y118.188 E34.92155
G1 X156.41 Y120.839 E35.0941
G1 X156.258 Y123.549 E35.27014
G1 X156.183 Y126.217 E35.44325
G1 X156.185 Y128.89 E35.61661
G1 X156.263 Y131.597 E35.79225
G1 X156.413 Y134.227 E35.9631
G1 X156.644 Y136.939 E36.13963
G1 X156.73 Y137.776 E36.19421
G1 X156.755 Y138.154 E36.21877
G1 X156.765 Y138.488 E36.24045
G1 X156.767 Y138.645 E36.25063
G1 X156.767 Y148.68 E36.90147
G1 X156.757 Y149.407 E36.94863
G1 X156.708 Y150.054 E36.99071
G1 X156.58 Y150.69 E37.03279
G1 X156.374 Y151.305 E37.07485
G1 X156.095 Y151.89 E37.11689
G1 X155.746 Y152.436 E37.15892
G1 X155.332 Y152.935 E37.20097
G1 X154.86 Y153.38 E37.24304
G1 X154.337 Y153.763 E37.28509
G1 X153.77 Y154.078 E37.32715
G1 X153.17 Y154.322 E37.36916
G1 X152.543 Y154.49 E37.41126
G1 X151.645 Y154.593 E37.46989
G1 X151.325 Y154.602 E37.49065
G1 X151.177 Y154.604 E37.50025
G1 X138.539 Y154.604 E38.31991
G1 X135.878 Y154.642 E38.49252
G1 X132.467 Y154.791 E38.71396
G1 X132.333 Y154.795 E38.72265
G1 X131.186 Y154.816 E38.79705
G1 X131.09 Y154.817 E38.80328
G1 X120.482 Y154.817 E39.49129
G1 X120.408 Y154.816 E39.49609
G1 X119.702 Y154.806 E39.54188
G1 X119.555 Y154.802 E39.55142
G1 X118.866 Y154.773 E39.59614
G1 X118.788 Y154.77 E39.60121
G1 X117.442 Y154.693 E39.68865
G1 X114.76 Y154.618 E39.86266
G1 X113.393 Y154.608 E39.95133
G1 X99.828 Y154.608 E40.83111
G1 X99.753 Y154.607 E40.83598
G1 X99.05 Y154.597 E40.88158
G1 X98.404 Y154.548 E40.9236
G1 X97.768 Y154.42 E40.96567
G1 X97.392 Y154.304 E40.99119
G1 X97.18 Y154.23 E41.00576
G1 X96.582 Y153.979 E41.04782
G1 X96.019 Y153.657 E41.08988
G1 X95.501 Y153.267 E41.13194
G1 X94.91 Y152.677 E41.1861
G1 X94.777 Y152.521 E41.19939
G1 X94.388 Y152.002 E41.24146
G1 X94.065 Y151.44 E41.2835
G1 X93.766 Y150.698 E41.33539
G1 X93.714 Y150.534 E41.34655
G1 X93.557 Y149.905 E41.38859
G1 X93.469 Y149.032 E41.4455
G1 X93.454 Y148.138 E41.50349
G1 X93.453 Y148.05 E41.5092
G1 X93.452 Y106.752 E44.18767
G1 X93.453 Y106.674 E44.19273
G1 X93.463 Y106 E44.23645
G1 X93.512 Y105.353 E44.27853
G1 X93.641 Y104.718 E44.32056
G1 X93.745 Y104.377 E44.34368
G1 X93.826 Y104.14 E44.35993
G1 X94.073 Y103.54 E44.40201
G1 X94.392 Y102.976 E44.44403
G1 X94.778 Y102.455 E44.48609
G1 X95.225 Y101.985 E44.52816
M204 S3000
G1 F2400 E38.52816
G0 F3000 X151.629 Y104.995
G0 X152.168 Y105.534
G0 X152.168 Y116.807
G0 X151.629 Y117.346
G0 X143.482 Y117.35
G0 X143.482 Y117.185
M204 S1000
;TYPE:SUPPORT-INTERFACE
G1 F2400 E44.52816
G1 X144.612 Y117.185 E44.60144
G1 X144.612 Y137.815 E45.93945
G1 X143.482 Y137.815 E46.01274
G1 X143.482 Y117.185 E47.35074
M204 S3000
G1 F2400 E41.35074
G0 F3000 X143.482 Y117.35
G0 X152.168 Y138.193
G0 X152.168 Y149.466
G0 X151.629 Y150.005
G0 X131.95 Y150.005
G0 X120.377 Y148.3
G0 X120.212 Y148.3
M204 S1000
G1 F2400 E47.35074
G1 X131.572 Y148.3 E48.08752
G1 X131.572 Y149.357 E48.15608
G1 X120.212 Y149.357 E48.89285
G1 X120.212 Y148.3 E48.96141
M204 S3000
G1 F2400 E42.96141
G0 F3000 X120.377 Y148.3
G0 X131.95 Y150.005
G0 X151.629 Y150.005
G0 X152.168 Y149.466
G0 X152.168 Y138.193
G0 X151.629 Y137.654
G0 X144.152 Y137.355
M204 S1000
G1 F2400 E48.96141
G1 X143.942 Y137.355 E48.97503
G1 X143.942 Y117.645 E50.25337
G1 X144.152 Y117.645 E50.26699
G1 X144.152 Y137.355 E51.54532
M204 S3000
G1 F2400 E45.54532
G0 F3000 X151.629 Y137.654
G0 X152.168 Y138.193
G0 X152.168 Y149.466
G0 X151.629 Y150.005
G0 X131.95 Y150.005
G0 X131.465 Y149.52
G0 X131.112 Y148.76
M204 S1000
G1 F2400 E51.54532
G1 X131.112 Y148.897 E51.55421
G1 X120.672 Y148.897 E52.23132
G1 X120.672 Y148.76 E52.2402
G1 X131.112 Y148.76 E52.91731
M204 S3000
G1 F2400 E46.91731
;MESH:Esp32Case_bot_V0.9.stl
G0 F3000 X131.112 Y145.424
G0 X131.112 Y143.959
G0 X120.419 Y106.956
M204 S1000
;TYPE:WALL-INNER
G1 F2400 E52.91731
G1 X150.207 Y106.956 E54.84928
G1 X150.207 Y115.385 E55.39596
G1 X136.757 Y115.385 E56.26829
G1 X136.757 Y139.615 E57.83978
G1 X150.207 Y139.615 E58.71211
G1 X150.207 Y148.044 E59.2588
G1 X133.372 Y148.044 E60.35067
G1 X133.372 Y143.459 E60.64804
G1 X118.412 Y143.459 E61.6183
G1 X118.412 Y148.048 E61.91593
G1 X100.013 Y148.048 E63.10924
G1 X100.012 Y106.953 E65.77455
G1 X110.349 Y106.952 E66.44498
G1 X110.609 Y106.952 E66.46184
G1 X110.609 Y107.212 E66.47276
G1 X110.609 Y111.087 E66.72408
G1 X120.419 Y111.087 E67.36033
G1 X120.419 Y106.956 E67.62825
M204 S3000
G0 F3000 X119.927 Y110.595
G0 X110.5 Y123.625
M204 S1000
G1 F2400 X102.75 Y123.625 E68.1309
G1 X102.75 Y131.375 E68.63354
G1 X110.5 Y131.375 E69.13618
G1 X110.5 Y123.625 E69.63883
M204 S3000
G0 F3000 X119.927 Y110.595
G0 X119.969 Y106.506
G0 X119.899 Y106.436
M204 S1000
G1 F2400 X150.727 Y106.436 E71.63825
G1 X150.727 Y115.905 E72.25238
G1 X137.277 Y115.905 E73.12471
G1 X137.277 Y139.095 E74.62875
G1 X150.727 Y139.095 E75.50108
G1 X150.727 Y148.564 E76.11522
G1 X132.852 Y148.564 E77.27454
G1 X132.852 Y143.979 E77.57191
G1 X118.932 Y143.979 E78.47472
G1 X118.932 Y148.568 E78.77235
G1 X99.493 Y148.568 E80.03311
G1 X99.492 Y106.433 E82.76587
G1 X110.869 Y106.432 E83.50375
G1 X111.129 Y106.432 E83.52062
G1 X111.129 Y106.692 E83.53153
G1 X111.129 Y110.567 E83.78285
G1 X119.899 Y110.567 E84.35165
G1 X119.899 Y106.436 E84.61958
M204 S3000
G0 F3000 X119.969 Y106.506
G0 X119.927 Y110.595
G0 X110.05 Y124.075
G0 X109.98 Y124.145
M204 S1000
G1 F2400 X103.27 Y124.145 E85.05477
G1 X103.27 Y130.855 E85.48996
G1 X109.98 Y130.855 E85.92515
G1 X109.98 Y124.145 E86.36034
M204 S3000
G0 F3000 X110.05 Y124.075
G0 X119.927 Y110.595
G0 X119.969 Y106.506
G0 X119.379 Y105.916
M204 S1000
;TYPE:WALL-OUTER
G1 F2400 X151.247 Y105.916 E88.42722
G1 X151.247 Y116.425 E89.1088
G1 X137.797 Y116.425 E89.98113
G1 X137.797 Y138.575 E91.41772
G1 X151.247 Y138.575 E92.29005
G1 X151.247 Y149.084 E92.97163
G1 X132.332 Y149.084 E94.19841
G1 X132.332 Y144.499 E94.49578
G1 X119.452 Y144.499 E95.33114
G1 X119.452 Y149.088 E95.62877
G1 X99.164 Y149.088 E96.9446
G1 X99.052 Y149.048 E96.95231
G1 X98.993 Y148.973 E96.9585
G1 X98.973 Y148.907 E96.96297
G1 X98.972 Y106.103 E99.73912
G1 X99.012 Y105.991 E99.74683
G1 X99.086 Y105.935 E99.75285
G1 X99.161 Y105.913 E99.75792
G1 X111.389 Y105.912 E100.551
G1 X111.649 Y105.912 E100.56786
G1 X111.649 Y106.172 E100.57877
G1 X111.649 Y110.047 E100.83009
G1 X119.379 Y110.047 E101.33144
