;FLAVOR:Marlin
;TIME:3859
;Filament used: 4.92042m
;Layer height: 0.2
;MINX:77.449
;MINY:92.449
;MINZ:0.3
;MAXX:173.4
;MAXY:162.551
;MAXZ:14.7
;Generated with Cura_SteamEngine 4.2.1
M140 S100
M105
M190 S100
M104 S240
M105
M109 S240
M82 ;absolute extrusion mode
G21 ;metric values
G90 ;absolute positioning
M82 ;set extruder to absolute mode
M107 ;start with the fan off
G28 X0 Y0 ;move X/Y to min endstops
G28 Z0 ;move Z to min endstops
G1 Z15.0 F100 ;move the platform down 15mm
G92 E0 ;zero the extruded length
G1 F200 E3 ;extrude 3mm of feed stock
G92 E0 ;zero the extruded length again
G1 F100
M117 Printing...
G5
M141 S28
G92 E0
G92 E0
G1 F2400 E-6
;LAYER_COUNT:74
;LAYER:0
M107
M204 S3000
G0 F3000 X80.48 Y94.219 Z0.3
M204 S1000
;TYPE:SKIRT
G1 F2400 E0
G1 X81.056 Y93.801 E0.04616
G1 X81.62 Y93.46 E0.0889
G1 X82.26 Y93.144 E0.1352
G1 X82.886 Y92.9 E0.17877
G1 X83.569 Y92.699 E0.22495
G1 X84.223 Y92.566 E0.26823
G1 X84.925 Y92.485 E0.31406
G1 X85.371 Y92.459 E0.34304
G1 X152.648 Y92.449 E4.70644
G1 X164.494 Y92.45 E5.47474
G1 X164.818 Y92.464 E5.49578
G1 X165.525 Y92.523 E5.54179
G1 X166.183 Y92.635 E5.58508
G1 X166.867 Y92.813 E5.63092
G1 X167.5 Y93.037 E5.67447
G1 X168.144 Y93.33 E5.72036
G1 X168.726 Y93.658 E5.76368
G1 X169.317 Y94.061 E5.81008
G1 X169.83 Y94.478 E5.85296
G1 X170.335 Y94.966 E5.8985
G1 X170.781 Y95.48 E5.94264
G1 X171.199 Y96.056 E5.9888
G1 X171.539 Y96.618 E6.0314
G1 X171.854 Y97.255 E6.07749
G1 X172.099 Y97.881 E6.12109
G1 X172.301 Y98.566 E6.16741
G1 X172.434 Y99.222 E6.21082
G1 X172.515 Y99.924 E6.25665
G1 X172.541 Y100.361 E6.28504
G1 X172.55 Y103.796 E6.50783
G1 X172.55 Y103.806 E6.50848
G1 X172.551 Y121.275 E7.64147
G1 X172.633 Y121.388 E7.65052
G1 X172.927 Y121.863 E7.68675
G1 X173.151 Y122.374 E7.72294
G1 X173.299 Y122.912 E7.75913
G1 X173.375 Y123.674 E7.8088
G1 X173.4 Y154.501 E9.80815
G1 X173.385 Y154.842 E9.83029
G1 X173.325 Y155.532 E9.87521
G1 X173.237 Y156.083 E9.9114
G1 X173.144 Y156.416 E9.93382
G1 X172.877 Y157.225 E9.98908
G1 X172.592 Y157.879 E10.03535
G1 X172.158 Y158.67 E10.09386
G1 X171.855 Y159.139 E10.13008
G1 X171.427 Y159.62 E10.17183
G1 X170.887 Y160.134 E10.22019
G1 X170.861 Y160.161 E10.22262
G1 X170.449 Y160.537 E10.25879
G1 X170.163 Y160.743 E10.28165
G1 X169.585 Y161.12 E10.32641
G1 X169.351 Y161.261 E10.34413
G1 X168.681 Y161.634 E10.39386
G1 X168.095 Y161.899 E10.43558
G1 X167.403 Y162.146 E10.48323
G1 X166.769 Y162.314 E10.52577
G1 X166.02 Y162.446 E10.5751
G1 X165.541 Y162.5 E10.60636
G1 X164.813 Y162.537 E10.65364
G1 X164.616 Y162.542 E10.66642
G1 X97.352 Y162.551 E15.02898
G1 X85.507 Y162.55 E15.79721
G1 X85.182 Y162.536 E15.81831
G1 X84.475 Y162.477 E15.86432
G1 X83.817 Y162.365 E15.90761
G1 X83.133 Y162.187 E15.95345
G1 X82.5 Y161.963 E15.997
G1 X81.856 Y161.67 E16.04289
G1 X81.274 Y161.342 E16.08622
G1 X80.683 Y160.939 E16.13261
G1 X80.17 Y160.522 E16.17549
G1 X79.665 Y160.034 E16.22104
G1 X79.217 Y159.517 E16.26541
G1 X78.799 Y158.94 E16.31162
G1 X78.461 Y158.381 E16.35398
G1 X78.145 Y157.742 E16.40022
G1 X77.9 Y157.114 E16.44394
G1 X77.699 Y156.431 E16.49011
G1 X77.566 Y155.778 E16.53334
G1 X77.485 Y155.078 E16.57904
G1 X77.459 Y154.634 E16.60788
G1 X77.45 Y146.404 E17.14166
G1 X77.45 Y146.4 E17.14192
G1 X77.449 Y100.506 E20.11848
G1 X77.463 Y100.176 E20.1399
G1 X77.523 Y99.469 E20.18592
G1 X77.634 Y98.821 E20.22856
G1 X77.811 Y98.138 E20.27432
G1 X78.037 Y97.498 E20.31834
G1 X78.331 Y96.853 E20.36431
G1 X78.658 Y96.274 E20.40744
G1 X79.061 Y95.683 E20.45384
G1 X79.478 Y95.17 E20.49671
G1 X79.966 Y94.665 E20.54226
G1 X80.48 Y94.219 E20.5864
M204 S3000
G0 F3000 X80.786 Y94.639
M204 S1000
G1 F2400 X81.362 Y94.221 E20.63256
G1 X81.851 Y93.926 E20.66959
G1 X82.491 Y93.61 E20.71589
G1 X83.033 Y93.398 E20.75363
G1 X83.716 Y93.197 E20.79981
G1 X84.283 Y93.082 E20.83733
G1 X84.985 Y93.001 E20.88316
G1 X85.371 Y92.979 E20.90824
G1 X152.648 Y92.969 E25.27164
G1 X164.494 Y92.97 E26.03994
G1 X164.775 Y92.982 E26.05818
G1 X165.482 Y93.041 E26.1042
G1 X166.052 Y93.138 E26.1417
G1 X166.736 Y93.316 E26.18754
G1 X167.285 Y93.51 E26.2253
G1 X167.929 Y93.803 E26.27119
G1 X168.433 Y94.087 E26.30871
G1 X169.024 Y94.49 E26.3551
G1 X169.469 Y94.852 E26.39231
G1 X169.974 Y95.34 E26.43785
G1 X170.361 Y95.786 E26.47615
G1 X170.779 Y96.362 E26.52231
G1 X171.073 Y96.849 E26.55921
G1 X171.388 Y97.486 E26.60529
G1 X171.6 Y98.028 E26.64304
G1 X171.802 Y98.713 E26.68936
G1 X171.918 Y99.282 E26.72702
G1 X171.999 Y99.984 E26.77285
G1 X172.021 Y100.362 E26.79741
G1 X172.03 Y103.797 E27.0202
G1 X172.03 Y103.806 E27.02078
G1 X172.031 Y121.444 E28.16473
G1 X172.212 Y121.694 E28.18475
G1 X172.484 Y122.136 E28.21841
G1 X172.684 Y122.616 E28.25214
G1 X172.809 Y123.12 E28.28582
G1 X172.855 Y123.674 E28.32187
G1 X172.88 Y154.501 E30.32123
G1 X172.867 Y154.797 E30.34044
G1 X172.807 Y155.487 E30.38536
G1 X172.723 Y155.999 E30.41901
G1 X172.65 Y156.253 E30.43615
G1 X172.383 Y157.062 E30.49141
G1 X172.136 Y157.629 E30.53152
G1 X171.702 Y158.42 E30.59004
G1 X171.418 Y158.855 E30.62373
G1 X171.068 Y159.243 E30.65762
G1 X170.528 Y159.756 E30.70593
G1 X170.484 Y159.803 E30.7101
G1 X170.098 Y160.151 E30.74381
G1 X169.879 Y160.307 E30.76125
G1 X169.301 Y160.684 E30.806
G1 X169.098 Y160.806 E30.82137
G1 X168.428 Y161.179 E30.8711
G1 X167.92 Y161.409 E30.90727
G1 X167.228 Y161.656 E30.95492
G1 X166.679 Y161.802 E30.99177
G1 X165.93 Y161.934 E31.04109
G1 X165.515 Y161.981 E31.06818
G1 X164.787 Y162.018 E31.11546
G1 X164.615 Y162.022 E31.12662
G1 X97.351 Y162.031 E35.48918
G1 X85.506 Y162.03 E36.25741
G1 X85.225 Y162.018 E36.27565
G1 X84.518 Y161.959 E36.32166
G1 X83.948 Y161.862 E36.35916
G1 X83.264 Y161.684 E36.405
G1 X82.715 Y161.49 E36.44277
G1 X82.071 Y161.197 E36.48866
G1 X81.567 Y160.913 E36.52618
G1 X80.976 Y160.51 E36.57257
G1 X80.531 Y160.148 E36.60978
G1 X80.026 Y159.66 E36.65532
G1 X79.638 Y159.212 E36.69376
G1 X79.22 Y158.635 E36.73997
G1 X78.927 Y158.15 E36.77672
G1 X78.611 Y157.511 E36.82296
G1 X78.398 Y156.967 E36.86085
G1 X78.197 Y156.284 E36.90702
G1 X78.082 Y155.719 E36.94442
G1 X78.001 Y155.019 E36.99012
G1 X77.979 Y154.634 E37.01513
G1 X77.97 Y146.404 E37.54891
G1 X77.97 Y146.4 E37.54917
G1 X77.969 Y100.506 E40.52573
G1 X77.981 Y100.22 E40.54429
G1 X78.041 Y99.513 E40.59031
G1 X78.137 Y98.951 E40.62729
G1 X78.314 Y98.268 E40.67305
G1 X78.51 Y97.714 E40.71116
G1 X78.804 Y97.069 E40.75714
G1 X79.087 Y96.567 E40.79451
G1 X79.49 Y95.976 E40.84091
G1 X79.852 Y95.531 E40.87811
G1 X80.34 Y95.026 E40.92366
G1 X80.786 Y94.639 E40.96196
M204 S3000
G0 F3000 X81.091 Y95.06
M204 S1000
G1 F2400 X81.667 Y94.642 E41.00811
G1 X82.081 Y94.393 E41.03945
G1 X82.721 Y94.077 E41.08574
G1 X83.18 Y93.897 E41.11772
G1 X83.863 Y93.696 E41.16389
G1 X84.342 Y93.599 E41.19559
G1 X85.044 Y93.518 E41.24142
G1 X85.372 Y93.499 E41.26273
G1 X152.649 Y93.489 E45.62613
G1 X164.494 Y93.49 E46.39437
G1 X164.732 Y93.5 E46.40982
G1 X165.439 Y93.559 E46.45583
G1 X165.921 Y93.641 E46.48754
G1 X166.605 Y93.819 E46.53338
G1 X167.069 Y93.984 E46.56532
G1 X167.713 Y94.277 E46.61121
G1 X168.14 Y94.517 E46.64298
G1 X168.731 Y94.92 E46.68937
G1 X169.107 Y95.226 E46.72081
G1 X169.612 Y95.714 E46.76636
G1 X169.94 Y96.091 E46.79877
G1 X170.358 Y96.667 E46.84493
G1 X170.607 Y97.079 E46.87615
G1 X170.922 Y97.716 E46.92224
G1 X171.101 Y98.175 E46.95419
G1 X171.303 Y98.86 E47.00051
G1 X171.401 Y99.341 E47.03235
G1 X171.482 Y100.043 E47.07818
G1 X171.501 Y100.364 E47.09904
G1 X171.51 Y103.799 E47.32182
G1 X171.51 Y103.806 E47.32228
G1 X171.511 Y121.613 E48.47719
G1 X171.791 Y121.999 E48.50812
G1 X172.038 Y122.408 E48.53911
G1 X172.214 Y122.852 E48.57008
G1 X172.313 Y123.32 E48.60111
G1 X172.335 Y123.675 E48.62418
G1 X172.36 Y154.502 E50.62353
G1 X172.349 Y154.752 E50.63976
G1 X172.289 Y155.442 E50.68468
G1 X172.156 Y156.09 E50.72758
G1 X171.889 Y156.899 E50.78284
G1 X171.68 Y157.379 E50.81679
G1 X171.246 Y158.17 E50.87531
G1 X170.982 Y158.568 E50.90628
G1 X170.71 Y158.866 E50.93245
G1 X170.16 Y159.389 E50.98168
G1 X170.107 Y159.445 E50.98668
G1 X169.594 Y159.871 E51.02993
G1 X169.016 Y160.248 E51.07468
G1 X168.845 Y160.352 E51.08766
G1 X168.175 Y160.725 E51.1374
G1 X167.745 Y160.92 E51.16802
G1 X167.053 Y161.167 E51.21567
G1 X166.588 Y161.29 E51.24687
G1 X165.839 Y161.422 E51.2962
G1 X165.488 Y161.461 E51.3191
G1 X164.76 Y161.498 E51.36638
G1 X164.615 Y161.502 E51.37579
G1 X97.351 Y161.511 E55.73835
G1 X85.506 Y161.51 E56.50658
G1 X85.268 Y161.5 E56.52203
G1 X84.561 Y161.441 E56.56804
G1 X84.079 Y161.359 E56.59975
G1 X83.395 Y161.181 E56.64559
G1 X82.931 Y161.016 E56.67753
G1 X82.287 Y160.723 E56.72342
G1 X81.86 Y160.483 E56.75519
G1 X81.269 Y160.08 E56.80158
G1 X80.893 Y159.774 E56.83303
G1 X80.388 Y159.286 E56.87857
G1 X80.059 Y158.907 E56.91112
G1 X79.641 Y158.33 E56.95733
G1 X79.393 Y157.92 E56.98841
G1 X79.077 Y157.281 E57.03465
G1 X78.897 Y156.82 E57.06674
G1 X78.696 Y156.137 E57.11292
G1 X78.599 Y155.659 E57.14455
G1 X78.518 Y154.959 E57.19026
G1 X78.499 Y154.633 E57.21144
G1 X78.49 Y146.403 E57.74521
G1 X78.49 Y146.4 E57.74541
G1 X78.489 Y100.506 E60.72196
G1 X78.499 Y100.264 E60.73767
G1 X78.559 Y99.557 E60.78369
G1 X78.64 Y99.082 E60.81494
G1 X78.817 Y98.399 E60.86071
G1 X78.984 Y97.93 E60.89299
G1 X79.278 Y97.285 E60.93897
G1 X79.517 Y96.86 E60.97059
G1 X79.92 Y96.269 E61.01699
G1 X80.226 Y95.893 E61.04843
G1 X80.714 Y95.388 E61.09397
G1 X81.091 Y95.06 E61.12638
M204 S3000
G0 F3000 X81.397 Y95.481
M204 S1000
G1 F2400 X81.973 Y95.063 E61.17254
G1 X82.311 Y94.859 E61.19815
G1 X82.951 Y94.543 E61.24444
G1 X83.326 Y94.396 E61.27056
G1 X84.009 Y94.195 E61.31674
G1 X84.402 Y94.115 E61.34275
G1 X85.104 Y94.034 E61.38858
G1 X85.372 Y94.019 E61.40599
G1 X152.649 Y94.009 E65.76939
G1 X164.494 Y94.01 E66.53763
G1 X164.689 Y94.018 E66.55029
G1 X165.396 Y94.077 E66.5963
G1 X165.79 Y94.144 E66.62222
G1 X166.474 Y94.322 E66.66806
G1 X166.854 Y94.457 E66.69421
G1 X167.498 Y94.75 E66.7401
G1 X167.847 Y94.947 E66.7661
G1 X168.438 Y95.35 E66.81249
G1 X168.746 Y95.6 E66.83822
G1 X169.251 Y96.088 E66.88376
G1 X169.519 Y96.397 E66.91029
G1 X169.937 Y96.973 E66.95645
G1 X170.141 Y97.31 E66.982
G1 X170.456 Y97.947 E67.02809
G1 X170.602 Y98.322 E67.05419
G1 X170.804 Y99.007 E67.10051
G1 X170.885 Y99.401 E67.1266
G1 X170.966 Y100.103 E67.17243
G1 X170.981 Y100.365 E67.18945
G1 X170.99 Y103.8 E67.41223
G1 X170.99 Y103.806 E67.41262
G1 X170.991 Y121.781 E68.57843
G1 X171.37 Y122.304 E68.62032
G1 X171.59 Y122.676 E68.64835
G1 X171.738 Y123.082 E68.67638
G1 X171.815 Y123.675 E68.71516
G1 X171.84 Y154.502 E70.71452
G1 X171.831 Y154.707 E70.72783
G1 X171.771 Y155.397 E70.77275
G1 X171.662 Y155.927 E70.80784
G1 X171.395 Y156.736 E70.8631
G1 X171.224 Y157.129 E70.89089
G1 X170.79 Y157.92 E70.94941
G1 X170.548 Y158.278 E70.97744
G1 X170.352 Y158.49 E70.99616
G1 X169.772 Y159.041 E71.04805
G1 X169.729 Y159.087 E71.05213
G1 X169.31 Y159.436 E71.0875
G1 X168.732 Y159.813 E71.13225
G1 X168.592 Y159.898 E71.14288
G1 X167.922 Y160.271 E71.19261
G1 X167.571 Y160.43 E71.2176
G1 X166.879 Y160.677 E71.26526
G1 X166.498 Y160.777 E71.29081
G1 X165.749 Y160.909 E71.34013
G1 X165.462 Y160.942 E71.35887
G1 X164.734 Y160.979 E71.40615
G1 X164.615 Y160.982 E71.41387
G1 X97.351 Y160.991 E75.77643
G1 X85.506 Y160.99 E76.54466
G1 X85.311 Y160.982 E76.55732
G1 X84.604 Y160.923 E76.60333
G1 X84.21 Y160.856 E76.62925
G1 X83.526 Y160.678 E76.67509
G1 X83.146 Y160.543 E76.70125
G1 X82.502 Y160.25 E76.74713
G1 X82.153 Y160.053 E76.77313
G1 X81.562 Y159.65 E76.81952
G1 X81.254 Y159.4 E76.84525
G1 X80.749 Y158.912 E76.8908
G1 X80.48 Y158.602 E76.91742
G1 X80.062 Y158.025 E76.96363
G1 X79.859 Y157.689 E76.98909
G1 X79.543 Y157.05 E77.03532
G1 X79.396 Y156.674 E77.06151
G1 X79.195 Y155.991 E77.10768
G1 X79.116 Y155.599 E77.13362
G1 X79.035 Y154.899 E77.17932
G1 X79.019 Y154.633 E77.1966
G1 X79.01 Y146.403 E77.73038
G1 X79.01 Y146.4 E77.73057
G1 X79.009 Y100.506 E80.70713
G1 X79.017 Y100.308 E80.71998
G1 X79.077 Y99.601 E80.766
G1 X79.144 Y99.212 E80.7916
G1 X79.321 Y98.529 E80.83736
G1 X79.457 Y98.145 E80.86379
G1 X79.751 Y97.5 E80.90976
G1 X79.947 Y97.153 E80.93561
G1 X80.35 Y96.562 E80.982
G1 X80.6 Y96.254 E81.00773
G1 X81.088 Y95.749 E81.05328
G1 X81.397 Y95.481 E81.0798
M204 S3000
G0 F3000 X81.702 Y95.902
M204 S1000
G1 F2400 X82.278 Y95.484 E81.12596
G1 X82.541 Y95.325 E81.1459
G1 X83.181 Y95.009 E81.19219
G1 X83.473 Y94.895 E81.21252
G1 X84.156 Y94.694 E81.25869
G1 X84.461 Y94.632 E81.27888
G1 X85.163 Y94.551 E81.32471
G1 X85.372 Y94.539 E81.33829
G1 X152.649 Y94.529 E85.70169
G1 X164.494 Y94.53 E86.46993
G1 X164.645 Y94.536 E86.47973
G1 X165.352 Y94.595 E86.52574
G1 X165.659 Y94.648 E86.54595
G1 X166.343 Y94.826 E86.59179
G1 X166.639 Y94.93 E86.61213
G1 X167.283 Y95.223 E86.65802
G1 X167.554 Y95.376 E86.67821
G1 X168.145 Y95.779 E86.7246
G1 X168.385 Y95.974 E86.74466
G1 X168.89 Y96.462 E86.7902
G1 X169.098 Y96.702 E86.8108
G1 X169.516 Y97.278 E86.85696
G1 X169.674 Y97.54 E86.8768
G1 X169.989 Y98.177 E86.92289
G1 X170.104 Y98.469 E86.94325
G1 X170.306 Y99.154 E86.98957
G1 X170.368 Y99.46 E87.00981
G1 X170.449 Y100.162 E87.05565
G1 X170.461 Y100.366 E87.0689
G1 X170.47 Y103.801 E87.29169
G1 X170.47 Y103.806 E87.29201
G1 X170.471 Y121.949 E88.46872
G1 X170.949 Y122.609 E88.52157
G1 X171.139 Y122.939 E88.54627
G1 X171.256 Y123.302 E88.571
G1 X171.295 Y123.676 E88.59539
G1 X171.32 Y154.503 E90.59474
G1 X171.313 Y154.662 E90.60507
G1 X171.253 Y155.352 E90.64999
G1 X171.168 Y155.764 E90.67727
G1 X170.901 Y156.573 E90.73252
G1 X170.769 Y156.878 E90.75408
G1 X170.335 Y157.669 E90.8126
G1 X169.993 Y158.113 E90.84895
G1 X169.414 Y158.664 E90.90078
G1 X169.352 Y158.729 E90.90661
G1 X169.026 Y159 E90.9341
G1 X168.448 Y159.377 E90.97886
G1 X168.339 Y159.443 E90.98713
G1 X167.669 Y159.816 E91.03686
G1 X167.396 Y159.94 E91.05631
G1 X166.704 Y160.187 E91.10396
G1 X166.408 Y160.265 E91.12382
G1 X165.659 Y160.397 E91.17314
G1 X165.435 Y160.423 E91.18777
G1 X164.707 Y160.46 E91.23504
G1 X164.615 Y160.462 E91.24101
G1 X97.351 Y160.471 E95.60357
G1 X85.506 Y160.47 E96.37181
G1 X85.355 Y160.464 E96.38161
G1 X84.648 Y160.405 E96.42762
G1 X84.341 Y160.352 E96.44783
G1 X83.657 Y160.174 E96.49367
G1 X83.361 Y160.07 E96.51401
G1 X82.717 Y159.777 E96.5599
G1 X82.446 Y159.624 E96.58009
G1 X81.855 Y159.221 E96.62648
G1 X81.615 Y159.026 E96.64654
G1 X81.11 Y158.538 E96.69208
G1 X80.901 Y158.297 E96.71277
G1 X80.483 Y157.72 E96.75898
G1 X80.326 Y157.459 E96.77874
G1 X80.01 Y156.82 E96.82497
G1 X79.895 Y156.527 E96.84539
G1 X79.694 Y155.844 E96.89156
G1 X79.632 Y155.539 E96.91175
G1 X79.551 Y154.839 E96.95745
G1 X79.539 Y154.632 E96.9709
G1 X79.53 Y146.402 E97.50468
G1 X79.53 Y146.4 E97.50481
G1 X79.529 Y100.506 E100.48136
G1 X79.536 Y100.352 E100.49136
G1 X79.596 Y99.645 E100.53738
G1 X79.647 Y99.342 E100.55731
G1 X79.824 Y98.659 E100.60307
G1 X79.93 Y98.361 E100.62358
G1 X80.224 Y97.716 E100.66956
G1 X80.376 Y97.446 E100.68965
G1 X80.779 Y96.855 E100.73605
G1 X80.974 Y96.615 E100.7561
G1 X81.462 Y96.11 E100.80165
G1 X81.702 Y95.902 E100.82225
M204 S3000
G0 F3000 X82.007 Y96.323
M204 S1000
G1 F2400 X82.583 Y95.905 E100.86841
G1 X82.771 Y95.791 E100.88267
G1 X83.411 Y95.475 E100.92896
G1 X83.62 Y95.394 E100.9435
G1 X84.303 Y95.193 E100.98967
G1 X84.521 Y95.149 E101.0041
G1 X85.223 Y95.068 E101.04993
G1 X85.372 Y95.059 E101.05961
G1 X152.649 Y95.049 E105.42301
G1 X164.494 Y95.05 E106.19125
G1 X164.602 Y95.055 E106.19826
G1 X165.309 Y95.114 E106.24427
G1 X165.528 Y95.151 E106.25868
G1 X166.212 Y95.329 E106.30452
G1 X166.423 Y95.404 E106.31904
